images/icon/leaf.svg

<svg width="14" height="24" viewBox="0 0 14 24" fill="none" xmlns="http://www.w3.org/2000/svg">
<path d="M13.9932 13.8638C13.6882 7.05728 7.75706 0.465709 7.4927 0.179119C7.4927 0.179119 7.4927 0.179119 7.45881 0.179119L7.37747 0.085977L7.28935 0.028659H6.90976L6.78097 0H6.74707L6.62506 0.085977L6.5505 0.15046C6.5505 0.15046 6.5505 0.15046 6.51661 0.15046C6.25225 0.465709 0.321114 7.06444 0.00252792 13.8638C-0.000842641 13.9139 -0.000842641 13.9642 0.00252792 14.0143C0.00252792 14.2722 0.00252792 14.5301 0.00252792 14.7952C0.260109 22.1749 6.78096 23.9804 6.83519 23.9947H7.00465C7.06095 24.0017 7.11782 24.0017 7.17411 23.9947C7.23512 23.9947 13.7492 22.1391 14 14.7952C14 14.5301 14 14.2722 14 14.0143C14 13.9641 13.9932 13.9139 13.9932 13.8638ZM1.79204 11.349C3.14596 12.579 4.67677 13.5731 6.32681 14.2937V17.5536C4.66609 16.6867 2.11062 15.1463 1.35822 13.7921C1.41926 12.9653 1.55776 12.1469 1.7717 11.349H1.79204ZM3.14772 7.69494C4.03431 8.6738 5.12205 9.42395 6.32681 9.88735V12.7103C4.81228 12.0346 3.43233 11.0622 2.25975 9.84437C2.51761 9.11096 2.81407 8.39337 3.14772 7.69494ZM11.7631 9.84437C10.591 11.0629 9.21098 12.0354 7.69605 12.7103V9.88735C8.89109 9.42006 9.96922 8.67015 10.848 7.69494C11.19 8.3834 11.4955 9.09142 11.7631 9.81571V9.84437ZM7.69605 8.36843V2.63663C8.60198 3.81097 9.42873 5.05113 10.1702 6.34797C9.5164 7.22655 8.6597 7.91248 7.6825 8.33977L7.69605 8.36843ZM7.69605 17.568V14.2937C9.35236 13.5795 10.8901 12.5902 12.2512 11.3633C12.4588 12.1643 12.5905 12.9851 12.6443 13.8136C11.8987 15.1463 9.34321 16.6795 7.6825 17.5393L7.69605 17.568ZM6.34037 8.36843C5.35868 7.93568 4.50109 7.23916 3.85268 6.34797C4.59279 5.03883 5.41956 3.78665 6.32681 2.6008L6.34037 8.36843ZM1.50056 16.0562C2.98306 17.2875 4.60416 18.3199 6.32681 19.1299V22.2824C5.09445 21.7531 4.00713 20.906 3.16409 19.8185C2.32105 18.7309 1.74914 17.4374 1.50056 16.0562ZM7.6825 22.2895V19.1227C9.40657 18.3186 11.0281 17.2883 12.5087 16.0562C12.2707 17.4427 11.7028 18.7423 10.8585 19.8328C10.0142 20.9233 8.92123 21.7687 7.6825 22.2895Z" fill="#2D3440"/>
</svg>

<svg width="14" height="24" fill="none" xmlns="http://www.w3.org/2000/svg"><path d="M14 13.86C13.68 7.06 7.75.46 7.5.18h-.04l-.08-.1-.1-.05h-.37L6.78 0h-.03l-.12.09-.08.06h-.03C6.25.47.32 7.06 0 13.86V14.8A9.8 9.8 0 0 0 6.84 24h.33A9.8 9.8 0 0 0 14 14.8V13.86ZM1.8 11.35a16.67 16.67 0 0 0 4.53 2.94v3.26c-1.66-.86-4.22-2.4-4.97-3.76.06-.82.2-1.64.41-2.44h.02Zm1.35-3.66a8.33 8.33 0 0 0 3.18 2.2v2.82a13.01 13.01 0 0 1-4.07-2.87c.26-.73.55-1.45.89-2.15Zm8.61 2.15a12.98 12.98 0 0 1-4.06 2.87V9.89a8.33 8.33 0 0 0 3.15-2.2c.34.7.65 1.4.91 2.13v.02ZM7.7 8.37V2.64c.9 1.17 1.73 2.41 2.47 3.7a6.21 6.21 0 0 1-2.49 2l.02.03Zm0 9.2v-3.28c1.65-.71 3.19-1.7 4.55-2.93.2.8.34 1.63.4 2.45-.75 1.34-3.3 2.87-4.97 3.73l.02.03Zm-1.36-9.2a6.15 6.15 0 0 1-2.49-2.02C4.6 5.04 5.42 3.79 6.33 2.6l.01 5.77ZM1.5 16.06a22.62 22.62 0 0 0 4.83 3.07v3.15a8.01 8.01 0 0 1-3.17-2.46 8.64 8.64 0 0 1-1.66-3.76Zm6.18 6.23v-3.17c1.73-.8 3.35-1.83 4.83-3.06a8.53 8.53 0 0 1-1.65 3.77 7.9 7.9 0 0 1-3.18 2.46Z" fill="#2D3440"/></svg>
